X: 2865
T: Barley And Chicory
R: barndance
M: 4/4
K: Gmajor
D|GBdg fdcA|~G3B AGFD|GBdB cBAG|FAEA DEFD|
(3Bcd ge fdcA|G3B AGFD|GBdB cADF|AGGF G3:|:d|
gfga bgdB|ceag fdde|faea dcA^A|Bd^ce d2(3def|
gfga bgdB|Aaag a3g|faed cADF|AGGF G3:|

